packages/kaspersky-hexa-ui-icons/src/iconsSVGs/28x20/FlagMn.svg

<svg width="28" height="20" viewBox="0 0 28 20" fill="none" xmlns="http://www.w3.org/2000/svg">
<g clip-path="url(#clip0_5138_1416)">
<rect width="28" height="20" rx="2" fill="white"/>
<mask id="mask0_5138_1416" style="mask-type:luminance" maskUnits="userSpaceOnUse" x="0" y="0" width="28" height="20">
<rect width="28" height="20" rx="2" fill="white"/>
</mask>
<g mask="url(#mask0_5138_1416)">
<path fill-rule="evenodd" clip-rule="evenodd" d="M9.33334 20H18.6667V0H9.33334V20Z" fill="#146BBC"/>
<path fill-rule="evenodd" clip-rule="evenodd" d="M0 20H9.33333V0H0V20Z" fill="#E43642"/>
<path fill-rule="evenodd" clip-rule="evenodd" d="M18.6667 20H28V0H18.6667V20Z" fill="#E43642"/>
<path fill-rule="evenodd" clip-rule="evenodd" d="M4.66666 10L5.33333 10.6667L4.66666 10.6667L4 10.6667L4.66666 10ZM4.66666 12C4.29847 12 4 11.7015 4 11.3333C4 10.9651 4.29847 10.6667 4.66666 10.6667C5.03485 10.6667 5.33333 10.9651 5.33333 11.3333C5.33333 11.7015 5.03485 12 4.66666 12ZM5.33333 12H4.66666H4H2.66666V16H4V14.6667L4.66666 16L5.33333 14.6667V16H6.66666V12H5.33333ZM4.66666 13.3333L5.33333 12V14C5.33333 13.6318 5.03485 13.3333 4.66666 13.3333ZM4 14V12L4.66666 13.3333C4.29847 13.3333 4 13.6318 4 14ZM4.66666 14.6667H4V14C4 14.3682 4.29847 14.6667 4.66666 14.6667ZM4.66666 14.6667H5.33333V14C5.33333 14.3682 5.03485 14.6667 4.66666 14.6667Z" fill="url(#paint0_linear_5138_1416)"/>
</g>
</g>
<defs>
<linearGradient id="paint0_linear_5138_1416" x1="2.66666" y1="10" x2="2.66666" y2="16" gradientUnits="userSpaceOnUse">
<stop stop-color="#F8D246"/>
<stop offset="1" stop-color="#F9CE2F"/>
</linearGradient>
<clipPath id="clip0_5138_1416">
<rect width="28" height="20" fill="white"/>
</clipPath>
</defs>
</svg>

<svg xmlns="http://www.w3.org/2000/svg" width="28" height="20" fill="none" viewBox="0 0 28 20"><g clip-path="url(#a)"><rect width="28" height="20" fill="#fff" rx="2"/><mask id="b" width="28" height="20" x="0" y="0" maskUnits="userSpaceOnUse" style="mask-type:luminance"><rect width="28" height="20" fill="#fff" rx="2"/></mask><g fill-rule="evenodd" clip-rule="evenodd" mask="url(#b)"><path fill="#146bbc" d="M9.3333 20h9.3334V0H9.3333z"/><path fill="#e43642" d="M0 20h9.333V0H0zm18.667 0H28V0h-9.333z"/><path fill="url(#c)" d="m4.6667 10 .6666.6667H4zm0 2a.6667.6667 0 1 1 0-1.3334.6667.6667 0 0 1 0 1.3334m.6666 0H2.6667v4H4v-1.3333L4.6667 16l.6666-1.3333V16h1.3334v-4zm-.6666 1.3333L5.3333 12v2a.6667.6667 0 0 0-.6666-.6667M4 14v-2l.6667 1.3333A.6667.6667 0 0 0 4 14m.6667.6667H4V14c0 .3682.2985.6667.6667.6667m0 0h.6666V14a.6667.6667 0 0 1-.6666.6667"/></g></g><defs><linearGradient id="c" x1="3" x2="3" y1="10" y2="16" gradientUnits="userSpaceOnUse"><stop stop-color="#f8d246"/><stop offset="1" stop-color="#f9ce2f"/></linearGradient><clipPath id="a"><path fill="#fff" d="M0 0h28v20H0z"/></clipPath></defs></svg>
